X:1
T:Title
%%score 1 { 2 | 3 }
L:1/8
Q:1/4=110
M:4/4
K:G
V:1 treble nm="Grand Piano, Soprano"
V:2 bass nm="Choir Pad, Buena Vista, 75.75.77.75"
V:3 bass 
V:1
 [DB]3 [DB] [DB]2 [CA]2 | [B,G]2 [CE]2 [B,D]4 | [B,G]3 [DG] [CF]2 [B,G]2 | [DA]6 z2 | %4
w: By~George~Coles~Stebbins,~1887 * * *||||
 [DB]3 [DB] [DB]2 [CA]2 | [B,G]2 [CE]2 [B,D]4 | [DG]3 [EG] [DB]2 [DA]2 | [DG]6 z2 | %8
w: ||||
 [DA]3 [DA] [DA]2 D2 | [DG]2 [DA]2 [DB]4 | [DB]3 [DB] [DB]2 [DG]2 | [DA]2 [DB]2 [Dc]4 | %12
w: ||||
 [DB]3 [Dc] [Gd]2 [DB]2 | [CA]2 [B,G]2 [B,E]4 | [B,D]3 [B,G] [B,G]2 [CA]2 | [B,G]8 |] %16
w: ||||
V:2
 G,3 G, G,2 F,2 | G,2 G,2 G,4 | G,3 G, A,2 G,2 | F,6 z2 | G,3 G, G,2 F,2 | G,2 G,2 G,4 | %6
 G,3 G, G,2 C2 | B,6 z2 | F,3 F, F,2 A,2 | G,2 F,2 G,4 | G,3 G, G,2 G,2 | F,2 G,2 A,4 | %12
 G,3 A, B,2 G,2 | F,2 G,2 G,4 | G,3 G, G,2 F,2 | G,8 |] %16
V:3
 z4 z2 D,2 | E,2 C,2 G,,4 | G,,3 B,, D,2 E,2 | D,6 z2 | z4 z2 D,2 | E,2 C,2 G,,4 | %6
 B,,3 C, D,2 D,2 | G,,6 z2 | D,3 D, D,2 C,2 | B,,2 D,2 z4 | z4 z2 B,,2 | D,2 D,2 D,4 | %12
 z2 z G, G,2 z2 | D,2 E,2 C,4 | D,3 D, D,2 D,2 | G,,8 |] %16

